public/avatar/body/123.svg

<svg xmlns:xlink="http://www.w3.org/1999/xlink" height="82" width="84.85" xmlns="http://www.w3.org/2000/svg"><g transform="translate(37.4 42.25)"><use height="38" transform="translate(-11.95 -17.45)" width="32.05" xlink:href="#a"/><use height="38.95" transform="translate(-12.45 -17.95)" width="33.05" xlink:href="#b"/><use height="32.1" transform="translate(-17.8 -2.6)" width="43.6" xlink:href="#c"/></g><defs><path d="M27.35 7.4q2.15 4.15 3.55 8.75 1.45 4.7 1.15 9.5-.35 4.95-4.2 8.1-3.8 3.2-8.75 4.05l-2.6.2q-3.6 0-7.05-1.15-4.65-1.6-7.1-5.5Q-.2 27.4.05 23q.2-4.4 2-9.3Q3.85 8.75 7 5.05 10.1 1.3 14.7.1l1.8-.1q1.9.05 3.7.8 4.75 2.05 7.15 6.6" fill="#c78349" fill-rule="evenodd" transform="translate(-.05)" id="d"/><path d="M27.35 7.4Q24.95 2.85 20.2.8 17.55-.3 14.7.1 10.1 1.3 7 5.05q-3.15 3.7-4.95 8.65-1.8 4.9-2 9.3-.25 4.4 2.3 8.35 2.45 3.9 7.1 5.5 4.65 1.55 9.65.95 4.95-.85 8.75-4.05 3.85-3.15 4.2-8.1.3-4.8-1.15-9.5-1.4-4.6-3.55-8.75Z" fill="none" stroke="#010102" stroke-linecap="round" stroke-linejoin="round" transform="translate(.45 .5)" id="e"/><use height="38" width="32.05" xlink:href="#d" id="a"/><use height="38.95" width="33.05" xlink:href="#e" id="b"/><g id="c" fill-rule="evenodd"><path d="M19.05-1.3v-.85l5.4-.45q1.3-.15 1.35 1l-.25.25Q22.05.9 20.85 4.9l-.2-.45.25-1.35Q22 1.35 23.25-.25l.55-.5q.75-.15 1.1-.95l.05-.15-5.9.55.8 3.3-.3.05-.5-3.35m-32.4 4.9Q-14.8.3-17.6-1.65l-.2-.35q3.15-1.15 6.65-.05l-.05.8-3.3-.3-2.45-.25.4.65.95.55q1.75 1.15 2.5 3.15l-.25 1.05m2.05-4.2-.3 2.85-.3-.1.45-2.05.1-.45.05-.25" fill="#003a41" transform="translate(17.8 2.6)"/><path d="m23.8-.75-.55.5Q22 1.35 20.9 3.1l-.15-.9-.9-.2-.8-3.3 4.75.55M18.7 5.5q-1.2 1.75-1.5 3.65l-.2 1.1.45.5.7.75-3.2 2q-1.45-.1-2.4.8l-.5.45q-3.3 1-6.55-.15l-1.4-.55q-7.7 2.75-14.45-2.8l.95-1-.65-3.15-2.7-3.3.25-1.1 2.1 1.15-1.3-.6-.8-.55-.1.75-.15.35L-10.7 5l4.25 6.5q2.95 1.25 6 .1l.8-.45 3.8 2.1q3.6-.65 6.65-2.65l.95-.65 3.3.15q1.6-4.05 5.3-6.35L18.7 5.5m.8 7.35.05.5-.65.6q2 3.3 2.05 7.05L19 20.35l-1.25-1.9 2.85 1.2Q20 17.2 19 15l-.6-1.15 1.1-1m-30.7-14.1h.05l-.15.65-.05.25v-.85l-3.15-.35 3.3.3m31.4 4.3-2.1 1.7Q16.4 5.9 15.2 7.8l-3.8-.05 3.45-.3 2.8-2.75 2.55-1.65m-15.9 9.2-.25.55-.95-1.65h.05l-.2-.2-.45-.85 1.8 2.15M.45 18.3l1.55.2.65.8q2.7 4.05 1.2 9l1.2-1.15q3.95-3.6 3-8.85l1.45.85q3.3 2.05 3.3 6.1l1-1.4h.8L13 26.2q-2.05-.8-3.6-2.15l-1.05-.95Q7 25.7 4.8 27.6l-1.05.95q-2.9-2-4.3-5.25-1.2 1.35-2.7 2l-1.85.9-.05-.3 1.45-8.45-.95-.7 3.95 1.3q-.45 4.35 2.35 7.65l1.95 2.2-3.15-9.6m8.1 4.65 3 2.3.5.1.5.2-2.9-3.5L8.5 20.2l.05 2.75M-13.1 2.55q-.75-2-2.5-3.15l-.95-.55 5.1 1.25-.45 2.05-1.2.4m12.25 5.9-2.2-.7 3.25.9-1.05-.2M-5.1 26.2q-2.2-2.55-2.85-5.8l-.3-2.3q-1.9 1.95-4.7 2.8.35-3.7 1.5-7.15l-.7-.6.6-.6 2.05 1.7q-.55-.3-1.05-.55l-.55-.25v.1q-.85 2.6-1.35 5.3l-.25 1.85q1.4-1.4 2.35-3.15l1.45-2.9 2.45 1.3-1.4.5q-.25 2.5.6 4.85l.45 1.1 1.7 3.8" fill="#537c2f" transform="translate(17.8 2.6)"/><path d="m17.45 10.75.8-.1.3.65-.4.2-.7-.75m2.1 2.6q2.1 3.5 2.1 7.55l-.05 1.05-2.1-.75 1 2.6-.1.3-.9 1.05-1.2.55-.85.3-.4-.2-1.35-2.35-2.3 3.85-4.6-3.1-4.7 5.3Q2.05 28.1.65 26.35l-1.4-1.9-1.35 1.05q-1.15.85-2.4 1.3l-.95.35q-2.15-2.6-3.05-5.75l-.45-1.6-3.2 1.35-1.3.4q-.2-4.8 1.35-9.5l.45.1.1.4-.6.6.7.6q-1.15 3.45-1.5 7.15 2.8-.85 4.7-2.8l.3 2.3q.65 3.25 2.85 5.8l1.85-.9q1.5-.65 2.7-2 1.4 3.25 4.3 5.25l1.05-.95q2.2-1.9 3.55-4.5l1.05.95q1.55 1.35 3.6 2.15l1.6-2.35h-.8l-.55-5.6-.9-.25-.5-.85Q7.05 18.8 2 18.5l-1.55-.2-1.15-.25-3.95-1.3-1.5-.9-2.6-1.65 4.95 2.15q7.7 2.6 15.5.05l.05-.95.05-.1.25-.6.5-.45q.95-.9 2.4-.8l.9.15.8.6.1.1.55.8v.95l-.6.85 1.05 1.5 1.25 1.9 1.95.65q-.05-3.75-2.05-7.05l.65-.6M18.5 24.6l1.1-.55-4.1-7.3.95-.9-.45-1.4-.25-.2-.4-.2q-2.6-.2-3 2.25l.05.55.85.35.95.05 3.2 7.9 1.1-.55m-3.95-1.55 1-.15L14 18l.55 5.05" fill="#033110" transform="translate(17.8 2.6)"/><path d="m20.9 3.1-.25 1.35L18.7 5.5l1.65-1.75-.1-.9-.05.2-2.55 1.65-2.8 2.75-3.45.3L7.8 8.8l-2.75 2.15-.55.9-.2.4-1.8-2.15L.2 8.65l-3.25-.9-3.6-.1-.65-.2-1.45-2.1-1.65-1.5-2.1-1.15-.25 1.1 2.7 3.3-2.65-2.5-.3-.25-.35-.75.25-1.05 1.2-.4.3.1q2.35 1.1 3.75 3.1l.9 1.3Q-1 6.3 3.45 9.85l.7.6Q8.55 6.3 14.5 6.7q1.35-2.45 3.75-3.9l1.3-.75.3-.05.9.2.15.9" fill="#424c14" transform="translate(17.8 2.6)"/><path d="m20.2 3.05.05-.2.1.9q-3.7 2.3-5.3 6.35l-3.3-.15-.95.65q-3.05 2-6.65 2.65l-3.8-2.1-.8.45q-3.05 1.15-6-.1L-10.7 5l2.75 1.8-.8-1.45 1.45 2.1.65.2 9.75 3.5.95 1.65.25-.55.2-.4L15.2 7.8q1.2-1.9 2.9-3.05l2.1-1.7M2.5 10.1l.45.85-3.8-2.5 1.05.2 2.3 1.45m10.75 7.1-.65-.45 3.5-1.3.15.4-.4.5-1.25.8.45.05 3.45 7.4-1.1.55-2.8-8-.4.1-.95-.05M-12.5 2.7l.8.55-.65-.3-.25.5.1-.75" fill="#639338" transform="translate(17.8 2.6)"/><path d="m19.05-1.3 5.9-.55-.05.15q-.35.8-1.1.95l-4.75-.55M11.4 7.75l3.8.05-10.7 4.05.55-.9L7.8 8.8l3.6-1.05m-8.3 3.4-9.75-3.5 3.6.1 2.2.7 3.8 2.5.2.2H3.1m-11.85-5.8.8 1.45L-10.7 5l-2.05-1.2.15-.35.25-.5.65.3 1.3.6 1.65 1.5m3.6 20.55.05.3-1.7-3.8-.8-5.5 1.15-.1 1.3 9.1m-11.4-27.05-.4-.65 2.45.25 3.15.35v.85l-.1.45-5.1-1.25m5.45 14.7v-.1l.55.25.95.5q-.35 2.7-2.05 4.7l-.8 1.05 1.35-6.4" fill="#7fcd41" transform="translate(17.8 2.6)"/><path d="m18.55 11.3 1.2-.6.15 1.7-.4.45-1.1 1L19 15q1 2.2 1.6 4.65l-2.85-1.2-1.05-1.5.6-.85 2.7 2.7-2-6.1-2.15.95-.9-.15 3.2-2 .4-.2m-30.2.85.15-1.45 1.15.55q6.75 5.55 14.45 2.8l1.4.55q3.25 1.15 6.55.15l-.25.6-2.8.45q-2.35-.05-4.7-.85l2.5 1.3-5.1.2 1.7-1.5q-3.4 1.4-6.75 0l-1.95-.6 1.85 1.35-5.3-1.65 4.95 2.3-4.95-2.15 2.6 1.65-.3.1-2.45-1.3-.6-.4-2.05-1.7-.1-.4m25.45 11.7-1 1.4q0-4.05-3.3-6.1l-1.45-.85q.95 5.25-3 8.85l-1.2 1.15q1.5-4.95-1.2-9L2 18.5q5.05.3 9.85-1.35l.5.85.9.25.55 5.6" fill="#446627" transform="translate(17.8 2.6)"/><path d="m1.7 16.45 5.1-.2 4.95-.8-.05.95q-7.8 2.55-15.5-.05l-4.95-2.3 5.3 1.65 5.15.75m15.05-2.1-.1-.1.6-.2-.5.3m-3.5 2.85-.85-.35-.05-.55q.4-2.45 3-2.25l.4.2.25.2.45 1.4-.95.9 4.1 7.3-1.1.55-3.45-7.4-.45-.05 1.25-.8.4-.5-.15-.4-3.5 1.3.65.45m4.15 7.95-3.2-7.9.4-.1 2.8 8m-2.85-2.1L14 18l1.55 4.9-1 .15" fill="#96b566" transform="translate(17.8 2.6)"/><path d="M15.85 13.65 18 12.7l2 6.1-2.7-2.7v-.95l-.55-.8.5-.3-.6.2-.8-.6m-19.3 2.05-1.85-1.35 1.95.6q3.35 1.4 6.75 0l-1.7 1.5-5.15-.75m10.25.55-2.5-1.3q2.35.8 4.7.85l2.8-.45-.05.1-4.95.8" fill="#1e5120" transform="translate(17.8 2.6)"/><path d="m.45 18.3 3.15 9.6-1.95-2.2q-2.8-3.3-2.35-7.65l1.15.25m-5.1-1.55.95.7-1.45 8.45-1.3-9.1-1.15.1.8 5.5-.45-1.1q-.85-2.35-.6-4.85l1.4-.5.3-.1 1.5.9m13.2 6.2L8.5 20.2l1.15 1.85 2.9 3.5-.5-.2-.5-.1-3-2.3m-17.45-8.3-1.45 2.9q-.95 1.75-2.35 3.15l.25-1.85q.5-2.7 1.35-5.3l-1.35 6.4.8-1.05q1.7-2 2.05-4.7l-.95-.5q.5.25 1.05.55l.6.4" fill="#72a841" transform="translate(17.8 2.6)"/></g></defs></svg>

<?xml version="1.0" encoding="UTF-8" standalone="no"?>
<svg xmlns:xlink="http://www.w3.org/1999/xlink" height="82.0px" width="84.85px" xmlns="http://www.w3.org/2000/svg">
  <g transform="matrix(1.0, 0.0, 0.0, 1.0, 37.4, 42.25)">
    <use height="38.0" transform="matrix(1.0, 0.0, 0.0, 1.0, -11.95, -17.45)" width="32.05" xlink:href="#sprite0"/>
    <use height="38.95" transform="matrix(1.0, 0.0, 0.0, 1.0, -12.45, -17.95)" width="33.05" xlink:href="#sprite1"/>
    <use height="32.1" transform="matrix(1.0, 0.0, 0.0, 1.0, -17.8, -2.6)" width="43.6" xlink:href="#shape2"/>
  </g>
  <defs>
    <g id="sprite0" transform="matrix(1.0, 0.0, 0.0, 1.0, -0.05, 0.0)">
      <use height="38.0" transform="matrix(1.0, 0.0, 0.0, 1.0, 0.05, 0.0)" width="32.05" xlink:href="#shape0"/>
    </g>
    <g id="shape0" transform="matrix(1.0, 0.0, 0.0, 1.0, -0.05, 0.0)">
      <path d="M27.35 7.4 Q29.5 11.55 30.9 16.15 32.35 20.85 32.05 25.65 31.7 30.6 27.85 33.75 24.05 36.95 19.1 37.8 L16.5 38.0 Q12.9 38.0 9.45 36.85 4.8 35.25 2.35 31.35 -0.2 27.4 0.05 23.0 0.25 18.6 2.05 13.7 3.85 8.75 7.0 5.05 10.1 1.3 14.7 0.1 L16.5 0.0 Q18.4 0.05 20.2 0.8 24.95 2.85 27.35 7.4" fill="#c78349" fill-rule="evenodd" stroke="none"/>
    </g>
    <g id="sprite1" transform="matrix(1.0, 0.0, 0.0, 1.0, 0.45, 0.5)">
      <use height="38.95" transform="matrix(1.0, 0.0, 0.0, 1.0, -0.45, -0.5)" width="33.05" xlink:href="#shape1"/>
    </g>
    <g id="shape1" transform="matrix(1.0, 0.0, 0.0, 1.0, 0.45, 0.5)">
      <path d="M27.35 7.4 Q24.95 2.85 20.2 0.8 17.55 -0.3 14.7 0.1 10.1 1.3 7.0 5.05 3.85 8.75 2.05 13.7 0.25 18.6 0.05 23.0 -0.2 27.4 2.35 31.35 4.8 35.25 9.45 36.85 14.1 38.4 19.1 37.8 24.05 36.95 27.85 33.75 31.7 30.6 32.05 25.65 32.35 20.85 30.9 16.15 29.5 11.55 27.35 7.4 Z" fill="none" stroke="#010102" stroke-linecap="round" stroke-linejoin="round" stroke-width="1.0"/>
    </g>
    <g id="shape2" transform="matrix(1.0, 0.0, 0.0, 1.0, 17.8, 2.6)">
      <path d="M19.05 -1.3 L19.05 -2.15 24.45 -2.6 Q25.75 -2.75 25.8 -1.6 L25.55 -1.35 Q22.05 0.9 20.85 4.9 L20.65 4.45 20.9 3.1 Q22.0 1.35 23.25 -0.25 L23.8 -0.75 Q24.55 -0.9 24.9 -1.7 L24.95 -1.85 19.05 -1.3 19.85 2.0 19.55 2.05 19.05 -1.3 M-13.35 3.6 Q-14.8 0.3 -17.6 -1.65 L-17.8 -2.0 Q-14.65 -3.15 -11.15 -2.05 L-11.2 -1.25 -14.5 -1.55 -16.95 -1.8 -16.55 -1.15 -15.6 -0.6 Q-13.85 0.55 -13.1 2.55 L-13.35 3.6 M-11.3 -0.6 L-11.6 2.25 -11.9 2.15 -11.45 0.1 -11.35 -0.35 -11.3 -0.6" fill="#003a41" fill-rule="evenodd" stroke="none"/>
      <path d="M23.8 -0.75 L23.25 -0.25 Q22.0 1.35 20.9 3.1 L20.75 2.2 19.85 2.0 19.05 -1.3 23.8 -0.75 M18.7 5.5 Q17.5 7.25 17.2 9.15 L17.0 10.25 17.45 10.75 18.15 11.5 14.95 13.5 Q13.5 13.4 12.55 14.3 L12.05 14.75 Q8.75 15.75 5.5 14.6 L4.1 14.05 Q-3.6 16.8 -10.35 11.25 L-9.4 10.25 -10.05 7.1 -12.75 3.8 -12.5 2.7 -10.4 3.85 -11.7 3.25 -12.5 2.7 -12.6 3.45 -12.75 3.8 -10.7 5.0 -6.45 11.5 Q-3.5 12.75 -0.45 11.6 L0.35 11.15 4.15 13.25 Q7.75 12.6 10.8 10.6 L11.75 9.95 15.05 10.1 Q16.65 6.05 20.35 3.75 L18.7 5.5 M19.5 12.85 L19.55 13.35 18.9 13.95 Q20.9 17.25 20.95 21.0 L19.0 20.35 17.75 18.45 20.6 19.65 Q20.0 17.2 19.0 15.0 L18.4 13.85 19.5 12.85 M-11.2 -1.25 L-11.15 -1.25 -11.3 -0.6 -11.35 -0.35 -11.35 -1.2 -14.5 -1.55 -11.2 -1.25 M20.2 3.05 L18.1 4.75 Q16.4 5.9 15.2 7.8 L11.4 7.75 14.85 7.45 17.65 4.7 20.2 3.05 M4.3 12.25 L4.05 12.8 3.1 11.15 3.15 11.15 2.95 10.95 2.5 10.1 4.3 12.25 M0.45 18.3 L2.0 18.5 2.65 19.3 Q5.35 23.35 3.85 28.3 L5.05 27.15 Q9.0 23.55 8.05 18.3 L9.5 19.15 Q12.8 21.2 12.8 25.25 L13.8 23.85 14.6 23.85 13.0 26.2 Q10.95 25.4 9.4 24.05 L8.35 23.1 Q7.0 25.7 4.8 27.6 L3.75 28.55 Q0.85 26.55 -0.55 23.3 -1.75 24.65 -3.25 25.3 L-5.1 26.2 -5.15 25.9 -3.7 17.45 -4.65 16.75 -0.7 18.05 Q-1.15 22.4 1.65 25.7 L3.6 27.9 0.45 18.3 M8.55 22.95 L11.55 25.25 12.05 25.35 12.55 25.55 9.65 22.05 8.5 20.2 8.55 22.95 M-13.1 2.55 Q-13.85 0.55 -15.6 -0.6 L-16.55 -1.15 -11.45 0.1 -11.9 2.15 -13.1 2.55 M-0.85 8.45 L-3.05 7.75 0.2 8.65 -0.85 8.45 M-5.1 26.2 Q-7.3 23.65 -7.95 20.4 L-8.25 18.1 Q-10.15 20.05 -12.95 20.9 -12.6 17.2 -11.45 13.75 L-12.15 13.15 -11.55 12.55 -9.5 14.25 Q-10.05 13.95 -10.55 13.7 L-11.1 13.45 -11.1 13.55 Q-11.95 16.15 -12.45 18.85 L-12.7 20.7 Q-11.3 19.3 -10.35 17.55 L-8.9 14.65 -6.45 15.95 -7.85 16.45 Q-8.1 18.95 -7.25 21.3 L-6.8 22.4 -5.1 26.2" fill="#537c2f" fill-rule="evenodd" stroke="none"/>
      <path d="M17.45 10.75 L18.25 10.65 18.55 11.3 18.15 11.5 17.45 10.75 M19.55 13.35 Q21.65 16.85 21.65 20.9 L21.6 21.95 19.5 21.2 20.5 23.8 20.4 24.1 19.5 25.15 18.3 25.7 17.45 26.0 17.05 25.8 15.7 23.45 13.4 27.3 8.8 24.2 4.1 29.5 Q2.05 28.1 0.65 26.35 L-0.75 24.45 -2.1 25.5 Q-3.25 26.35 -4.5 26.8 L-5.45 27.15 Q-7.6 24.55 -8.5 21.4 L-8.95 19.8 -12.15 21.15 -13.45 21.55 Q-13.65 16.75 -12.1 12.05 L-11.65 12.15 -11.55 12.55 -12.15 13.15 -11.45 13.75 Q-12.6 17.2 -12.95 20.9 -10.15 20.05 -8.25 18.1 L-7.95 20.4 Q-7.3 23.65 -5.1 26.2 L-3.25 25.3 Q-1.75 24.65 -0.55 23.3 0.85 26.55 3.75 28.55 L4.8 27.6 Q7.0 25.7 8.35 23.1 L9.4 24.05 Q10.95 25.4 13.0 26.2 L14.6 23.85 13.8 23.85 13.25 18.25 12.35 18.0 11.85 17.15 Q7.05 18.8 2.0 18.5 L0.45 18.3 -0.7 18.05 -4.65 16.75 -6.15 15.85 -8.75 14.2 -3.8 16.35 Q3.9 18.95 11.7 16.4 L11.75 15.45 11.8 15.35 12.05 14.75 12.55 14.3 Q13.5 13.4 14.95 13.5 L15.85 13.65 16.65 14.25 16.75 14.35 17.3 15.15 17.3 16.1 16.7 16.95 17.75 18.45 19.0 20.35 20.95 21.0 Q20.9 17.25 18.9 13.95 L19.55 13.35 M18.5 24.6 L19.6 24.05 15.5 16.75 16.45 15.85 16.0 14.45 15.75 14.25 15.35 14.05 Q12.75 13.85 12.35 16.3 L12.4 16.85 13.25 17.2 14.2 17.25 17.4 25.15 18.5 24.6 M14.55 23.05 L15.55 22.9 14.0 18.0 14.55 23.05" fill="#033110" fill-rule="evenodd" stroke="none"/>
      <path d="M20.9 3.1 L20.65 4.45 18.7 5.5 20.35 3.75 20.25 2.85 20.2 3.05 17.65 4.7 14.85 7.45 11.4 7.75 7.8 8.8 5.05 10.95 4.5 11.85 4.3 12.25 2.5 10.1 0.2 8.65 -3.05 7.75 -6.65 7.65 -7.3 7.45 -8.75 5.35 -10.4 3.85 -12.5 2.7 -12.75 3.8 -10.05 7.1 -12.7 4.6 -13.0 4.35 -13.35 3.6 -13.1 2.55 -11.9 2.15 -11.6 2.25 Q-9.25 3.35 -7.85 5.35 L-6.95 6.65 Q-1.0 6.3 3.45 9.85 L4.15 10.45 Q8.55 6.3 14.5 6.7 15.85 4.25 18.25 2.8 L19.55 2.05 19.85 2.0 20.75 2.2 20.9 3.1" fill="#424c14" fill-rule="evenodd" stroke="none"/>
      <path d="M20.2 3.05 L20.25 2.85 20.35 3.75 Q16.65 6.05 15.05 10.1 L11.75 9.95 10.8 10.6 Q7.75 12.6 4.15 13.25 L0.35 11.15 -0.45 11.6 Q-3.5 12.75 -6.45 11.5 L-10.7 5.0 -7.95 6.8 -8.75 5.35 -7.3 7.45 -6.65 7.65 3.1 11.15 4.05 12.8 4.3 12.25 4.5 11.85 15.2 7.8 Q16.4 5.9 18.1 4.75 L20.2 3.05 M2.5 10.1 L2.95 10.95 -0.85 8.45 0.2 8.65 2.5 10.1 M13.25 17.2 L12.6 16.75 16.1 15.45 16.25 15.85 15.85 16.35 14.6 17.15 15.05 17.2 18.5 24.6 17.4 25.15 14.6 17.15 14.2 17.25 13.25 17.2 M-12.5 2.7 L-11.7 3.25 -12.35 2.95 -12.6 3.45 -12.5 2.7" fill="#639338" fill-rule="evenodd" stroke="none"/>
      <path d="M19.05 -1.3 L24.95 -1.85 24.9 -1.7 Q24.55 -0.9 23.8 -0.75 L19.05 -1.3 M11.4 7.75 L15.2 7.8 4.5 11.85 5.05 10.95 7.8 8.8 11.4 7.75 M3.1 11.15 L-6.65 7.65 -3.05 7.75 -0.85 8.45 2.95 10.95 3.15 11.15 3.1 11.15 M-8.75 5.35 L-7.95 6.8 -10.7 5.0 -12.75 3.8 -12.6 3.45 -12.35 2.95 -11.7 3.25 -10.4 3.85 -8.75 5.35 M-5.15 25.9 L-5.1 26.2 -6.8 22.4 -7.6 16.9 -6.45 16.8 -5.15 25.9 M-16.55 -1.15 L-16.95 -1.8 -14.5 -1.55 -11.35 -1.2 -11.35 -0.35 -11.45 0.1 -16.55 -1.15 M-11.1 13.55 L-11.1 13.45 -10.55 13.7 -9.6 14.2 Q-9.95 16.9 -11.65 18.9 L-12.45 19.95 -11.1 13.55" fill="#7fcd41" fill-rule="evenodd" stroke="none"/>
      <path d="M18.55 11.3 L19.75 10.7 19.9 12.4 19.5 12.85 18.4 13.85 19.0 15.0 Q20.0 17.2 20.6 19.65 L17.75 18.45 16.7 16.95 17.3 16.1 20.0 18.8 18.0 12.7 15.85 13.65 14.95 13.5 18.15 11.5 18.55 11.3 M-11.65 12.15 L-11.5 10.7 -10.35 11.25 Q-3.6 16.8 4.1 14.05 L5.5 14.6 Q8.75 15.75 12.05 14.75 L11.8 15.35 9.0 15.8 Q6.65 15.75 4.3 14.95 L6.8 16.25 1.7 16.45 3.4 14.95 Q0.0 16.35 -3.35 14.95 L-5.3 14.35 -3.45 15.7 -8.75 14.05 -3.8 16.35 -8.75 14.2 -6.15 15.85 -6.45 15.95 -8.9 14.65 -9.5 14.25 -11.55 12.55 -11.65 12.15 M13.8 23.85 L12.8 25.25 Q12.8 21.2 9.5 19.15 L8.05 18.3 Q9.0 23.55 5.05 27.15 L3.85 28.3 Q5.35 23.35 2.65 19.3 L2.0 18.5 Q7.05 18.8 11.85 17.15 L12.35 18.0 13.25 18.25 13.8 23.85" fill="#446627" fill-rule="evenodd" stroke="none"/>
      <path d="M1.7 16.45 L6.8 16.25 11.75 15.45 11.7 16.4 Q3.9 18.95 -3.8 16.35 L-8.75 14.05 -3.45 15.7 1.7 16.45 M16.75 14.35 L16.65 14.25 17.25 14.05 16.75 14.35 M13.25 17.2 L12.4 16.85 12.35 16.3 Q12.75 13.85 15.35 14.05 L15.75 14.25 16.0 14.45 16.45 15.85 15.5 16.75 19.6 24.05 18.5 24.6 15.05 17.2 14.6 17.15 15.85 16.35 16.25 15.85 16.1 15.45 12.6 16.75 13.25 17.2 M17.4 25.15 L14.2 17.25 14.6 17.15 17.4 25.15 M14.55 23.05 L14.0 18.0 15.55 22.9 14.55 23.05" fill="#96b566" fill-rule="evenodd" stroke="none"/>
      <path d="M15.85 13.65 L18.0 12.7 20.0 18.8 17.3 16.1 17.3 15.15 16.75 14.35 17.25 14.05 16.65 14.25 15.85 13.65 M-3.45 15.7 L-5.3 14.35 -3.35 14.95 Q0.0 16.35 3.4 14.95 L1.7 16.45 -3.45 15.7 M6.8 16.25 L4.3 14.95 Q6.65 15.75 9.0 15.8 L11.8 15.35 11.75 15.45 6.8 16.25" fill="#1e5120" fill-rule="evenodd" stroke="none"/>
      <path d="M0.45 18.3 L3.6 27.9 1.65 25.7 Q-1.15 22.4 -0.7 18.05 L0.45 18.3 M-4.65 16.75 L-3.7 17.45 -5.15 25.9 -6.45 16.8 -7.6 16.9 -6.8 22.4 -7.25 21.3 Q-8.1 18.95 -7.85 16.45 L-6.45 15.95 -6.15 15.85 -4.65 16.75 M8.55 22.95 L8.5 20.2 9.65 22.05 12.55 25.55 12.05 25.35 11.55 25.25 8.55 22.95 M-8.9 14.65 L-10.35 17.55 Q-11.3 19.3 -12.7 20.7 L-12.45 18.85 Q-11.95 16.15 -11.1 13.55 L-12.45 19.95 -11.65 18.9 Q-9.95 16.9 -9.6 14.2 L-10.55 13.7 Q-10.05 13.95 -9.5 14.25 L-8.9 14.65" fill="#72a841" fill-rule="evenodd" stroke="none"/>
    </g>
  </defs>
</svg>
